X: 37040
T: Silver Fox, The
R: barndance
M: 4/4
K: Dmajor
|:EF|A{G}FAB d2BA|fede e2dB|AF{G}AB d2BA|GAFE{D} E2EF|
A{G}FAB d2BA|fede e2de|fede {f}edBA|BAF{E}D D2:|
|:ED|A2AB ABd2|efdB B2dB|~A2AB ABde|fede e2fe|
afbf afed|fede e2de|fede {f}edBA|BAF{E}D D2:|

